X: 3344
T: The WHITSTABLE
%R: hornpipe, reel
B: James Kerr "Merry Melodies" v.3 p.37 #344
Z: 2016 John Chambers <jc:trillian.mit.edu>
M: C
L: 1/8
K: G
(uBc) |\
d>ba>g f>ge>f | d>ec>d B>cA>B |\
G>AB>c d>ef>g | a>^ga>b a2(Bc) |\
d>ba>g f>ge>f | d>ec>d B>cA>B |
G>Bd>g f>ga>f | g2b2g2 H::\
a>g |\
f>ge>f d>ec>d | B>cd>e d2a>g |\
f>ge>f d>ec>d | B>cd>e d2d>c |\
B>cd>e f>ga>f |
g>fg>a b>ag>f |\
e>^de>f a>gf>e | d>^cd>e "_D.C."d2 ::\
(3ddd |\
d2 (3ddd d2 (3ddd | d2(d'd) c'dbd |\
adbd c'dbd |[1 a2(3d'd'd' d'2 :|[2 a6 |]

%%sep 1 1 500
%%sep 1 1 500

